images/twitter.svg

<?xml version="1.0" encoding="UTF-8"?>
<svg width="20px" height="16px" viewBox="0 0 20 16" version="1.1" xmlns="http://www.w3.org/2000/svg" xmlns:xlink="http://www.w3.org/1999/xlink">
    <!-- Generator: sketchtool 50.2 (55047) - http://www.bohemiancoding.com/sketch -->
    <title>CE51A947-05DB-47D6-BBCA-5B129F41B510</title>
    <desc>Created with sketchtool.</desc>
    <defs></defs>
    <g id="Symbols" stroke="none" stroke-width="1" fill="none" fill-rule="evenodd">
        <g id="Footer" transform="translate(-1022.000000, -140.000000)" fill="#55ACEE">
            <g id="Twitter" transform="translate(1022.000000, 140.000000)">
                <path d="M18.8755048,0.350361905 C18.3109968,0.711949206 17.0148952,1.23738413 16.3756952,1.23738413 L16.3756952,1.23846349 C15.6458286,0.476 14.618273,0 13.4786794,0 C11.2653333,0 9.47056508,1.79476825 9.47056508,4.00725079 C9.47056508,4.31465397 9.50618413,4.61450159 9.5720254,4.90204444 L9.57137778,4.90204444 C6.56901587,4.82325079 3.28537143,3.3184 1.30862222,0.742819048 C0.0932571429,2.84650159 1.14499048,5.18613333 2.52420317,6.03861587 C2.05208889,6.07423492 1.18298413,5.98421587 0.773904762,5.58506667 C0.746488889,6.98133333 1.41785397,8.83136508 3.86585397,9.50251429 C3.3943873,9.75616508 2.55982222,9.68341587 2.19693968,9.62944762 C2.32430476,10.8081143 3.97486984,12.3490159 5.77978413,12.3490159 C5.13648254,13.0931302 2.71611429,14.4427683 0,14.0133968 C1.84463492,15.1357206 3.99451429,15.7857143 6.27003175,15.7857143 C12.7365079,15.7857143 17.7583619,10.5449651 17.4880889,4.07978413 C17.4870095,4.07266032 17.4870095,4.06553651 17.4863619,4.05776508 C17.4870095,4.04114286 17.4880889,4.02452063 17.4880889,4.00725079 C17.4880889,3.9871746 17.4863619,3.96817778 17.4857143,3.94874921 C18.0744,3.54614603 18.8642794,2.83398095 19.4285714,1.89666032 C19.1013079,2.07691429 18.1195175,2.43785397 17.2059429,2.52744127 C17.792254,2.21097143 18.660927,1.17456508 18.8755048,0.350361905" id="Fill-1"></path>
            </g>
        </g>
    </g>
</svg>

<svg xmlns="http://www.w3.org/2000/svg" width="20" height="16"><title>CE51A947-05DB-47D6-BBCA-5B129F41B510</title><desc>Created with sketchtool.</desc><g fill="none"><g fill="#55ACEE"><g><path d="M18.88.35c-.57.36-1.87.9-2.5.9C15.65.47 14.62 0 13.48 0c-2.2 0-4 1.8-4 4 0 .3.03.6.1.9-3-.08-6.3-1.58-8.27-4.16-1.2 2.1-.16 4.45 1.22 5.3-.47.03-1.34-.06-1.75-.45-.02 1.38.65 3.23 3.1 3.9-.48.26-1.3.18-1.67.13.12 1.18 1.77 2.72 3.58 2.72-.64.74-3.06 2.1-5.78 1.66 1.84 1.14 4 1.8 6.27 1.8 6.47 0 11.5-5.26 11.22-11.72 0 0 0 0 0-.02s0-.04 0-.05c0 0 0-.03 0-.05.57-.4 1.36-1.12 1.93-2.05-.33.18-1.3.54-2.22.63.6-.32 1.46-1.36 1.68-2.18"/></g></g></g></svg>
